assets/post_files/technology/expert/2.0-how-does-it-work/mining.svg

<svg width="237" height="108" viewBox="0 0 237 108" fill="none" xmlns="http://www.w3.org/2000/svg">
<g clip-path="url(#clip0)">
<path d="M236.63 0H14.6299V108H236.63V0Z" fill="#F5F6FA"/>
<path d="M14.68 68.6803C22.7875 68.6803 29.36 62.1079 29.36 54.0003C29.36 45.8928 22.7875 39.3203 14.68 39.3203C6.57246 39.3203 0 45.8928 0 54.0003C0 62.1079 6.57246 68.6803 14.68 68.6803Z" fill="#0E9DE5"/>
<path d="M12 60.5L23.9399 71.2696L30.6599 59.0096L20 48.5L18.2999 53.5L12 60.5Z" fill="#041742"/>
<path d="M74.8496 75.8497C94.7098 75.8497 110.81 59.7498 110.81 39.8897C110.81 20.0295 94.7098 3.92969 74.8496 3.92969C54.9895 3.92969 38.8896 20.0295 38.8896 39.8897C38.8896 59.7498 54.9895 75.8497 74.8496 75.8497Z" fill="white"/>
<path d="M170.7 71.5898C188.522 71.5898 202.97 57.142 202.97 39.3198C202.97 21.4976 188.522 7.0498 170.7 7.0498C152.877 7.0498 138.43 21.4976 138.43 39.3198C138.43 57.142 152.877 71.5898 170.7 71.5898Z" fill="white"/>
<path d="M128.16 99.2096C139.306 99.2096 148.34 90.1747 148.34 79.0296C148.34 67.8845 139.306 58.8496 128.16 58.8496C117.015 58.8496 107.98 67.8845 107.98 79.0296C107.98 90.1747 117.015 99.2096 128.16 99.2096Z" fill="white"/>
<path d="M99.4604 28.5496L101.1 26.9096L98.3604 24.1696C97.7804 23.5796 98.4304 22.2596 99.9004 20.6696C99.9854 20.5747 100.075 20.4846 100.17 20.3996C100.746 19.7876 101.357 19.2099 102 18.6696V18.6696C105.756 15.5539 110.119 13.252 114.81 11.9096C114.648 10.6984 114.229 9.53574 113.58 8.49965C112.952 7.38527 112.204 6.34248 111.35 5.38965C105.143 9.67356 99.2784 14.4346 93.8104 19.6296L93.1904 18.9996L84.1904 27.9996L84.8204 28.6296C73.8204 40.3396 66.2104 51.5396 64.4404 58.1096L67.0704 57.2696C70.4104 51.4096 80.7504 38.1396 89.0704 32.8896L92.0704 35.8896L93.4404 34.5296L96.9204 37.9996L160.09 101.17L166.09 95.1696L99.4604 28.5496Z" fill="#9EE7FF"/>
<path d="M172.47 34.2699L169.56 14.7999L150.09 11.8799L132.69 29.2799L131.98 28.5799L130.07 30.4799L130.78 31.1899L139.24 39.6599L133.41 45.4899L138.86 50.9499L144.7 45.1099L153.16 53.5799L153.87 54.2899L155.78 52.3799L155.07 51.6699L172.47 34.2699Z" fill="#6EF9B7"/>
<path d="M133.84 45.9297L132.84 46.9297L108.52 71.2297L107.23 69.9997L99.7896 77.4397L97.7896 79.4397L88.7896 78.1397L83.1396 83.7997L84.5196 85.1797L86.1696 83.5397L85.1696 84.5397L99.7896 99.1997L101.28 97.7097L99.1996 99.7897L100.58 101.17L106.24 95.5197L104.94 86.5197L106.94 84.5197L114.38 77.0797L113.11 75.8097L138.46 50.4597L133.84 45.9297ZM102.73 85.5697L104.19 94.7997L102.8 96.1897L88.1597 81.5497L89.5497 80.1697L98.7796 81.6297L101.37 79.0297L105.32 83.0297L102.73 85.5697Z" fill="#26DB8D"/>
<path d="M19.8894 48V49.8577L14.6684 60.6256H11.529L16.7499 50.477H11V48H19.8894Z" fill="white"/>
</g>
<defs>
<clipPath id="clip0">
<rect width="236.63" height="108" fill="white"/>
</clipPath>
</defs>
</svg>

<svg xmlns="http://www.w3.org/2000/svg" xmlns:xlink="http://www.w3.org/1999/xlink" viewBox="0 0 236.63 108"><defs><style>.cls-1{fill:none;}.cls-2{fill:#f5f6fa;}.cls-3{fill:#0e9de5;}.cls-4{clip-path:url(#clip-path);}.cls-5{fill:#041742;}.cls-6{fill:#fff;}.cls-7{fill:#9ee7ff;}.cls-8{fill:#6ef9b7;}.cls-9{fill:#26db8d;}</style><clipPath id="clip-path"><circle class="cls-1" cx="14.68" cy="54" r="14.68"/></clipPath></defs><title>mining</title><g id="Layer_2" data-name="Layer 2"><g id="Layer_1-2" data-name="Layer 1"><rect class="cls-2" x="14.63" width="222" height="108"/><circle class="cls-3" cx="14.68" cy="54" r="14.68"/><g class="cls-4"><polygon class="cls-5" points="11.13 58.46 23.94 71.27 30.66 59.01 18.3 46.64 12.27 49.82 11.13 58.46"/></g><path class="cls-6" d="M18.3,49a8.36,8.36,0,0,0-1.18,0c-2.7.2-3.9,1.6-4.24,3.1h.06a3.76,3.76,0,0,1,2.76-1,4,4,0,0,1,4,4.24,4.65,4.65,0,0,1-4.78,4.71c-3.48,0-5.18-2.58-5.18-5.69a7.8,7.8,0,0,1,2.32-5.8,7.72,7.72,0,0,1,5-1.9,6.4,6.4,0,0,1,1.22,0Zm-3.4,8.83c1.06,0,1.74-1,1.74-2.31a2,2,0,0,0-1.94-2.24,2,2,0,0,0-1.78,1.14,1.6,1.6,0,0,0-.14.78c.06,1.38.72,2.63,2.1,2.63Z"/><circle class="cls-6" cx="74.85" cy="39.89" r="35.96"/><circle class="cls-6" cx="170.7" cy="39.32" r="32.27"/><circle class="cls-6" cx="128.16" cy="79.03" r="20.18"/><path class="cls-7" d="M99.46,28.55l1.64-1.64-2.74-2.74c-.58-.59.07-1.91,1.54-3.5h0a3.44,3.44,0,0,1,.27-.27h0A21.42,21.42,0,0,1,102,18.67l0,0a35.25,35.25,0,0,1,12.81-6.76,8.58,8.58,0,0,0-1.23-3.41,17.66,17.66,0,0,0-2.23-3.11A145.2,145.2,0,0,0,93.81,19.63L93.19,19l-9,9,.63.63c-11,11.71-18.61,22.91-20.38,29.48l2.63-.84c3.34-5.86,13.68-19.13,22-24.38l3,3,1.37-1.36h0L96.92,38h0l63.17,63.17,6-6Z"/><polygon class="cls-8" points="172.47 34.27 169.56 14.8 150.09 11.88 132.69 29.28 131.98 28.58 130.07 30.48 130.78 31.19 130.78 31.19 139.24 39.66 133.41 45.49 138.86 50.95 144.7 45.11 153.16 53.58 153.87 54.29 155.78 52.38 155.07 51.67 172.47 34.27"/><path class="cls-9" d="M133.84,45.93l-1,1h0l-24.32,24.3L107.23,70l-7.44,7.44-2,2-9-1.3-5.65,5.66,1.38,1.38,1.65-1.64-1,1L99.79,99.2l1.49-1.49L99.2,99.79l1.38,1.38,5.66-5.65-1.3-9,2-2h0l7.44-7.44-1.27-1.27,25.35-25.35ZM102.73,85.57l1.46,9.23-1.39,1.39L88.16,81.55l1.39-1.38,9.23,1.46,2.59-2.6,3.95,4Z"/></g></g></svg>
